icon/fa/sun-plant-wilt.svg

<svg xmlns="http://www.w3.org/2000/svg" viewBox="0 0 640 512"><!--! Font Awesome Free 6.1.2 by @fontawesome - https://fontawesome.com License - https://fontawesome.com/license/free (Icons: CC BY 4.0, Fonts: SIL OFL 1.1, Code: MIT License) Copyright 2022 Fonticons, Inc.--><path d="M192 160c0 17.7-14.3 32-32 32s-32-14.3-32-32 14.3-32 32-32 32 14.3 32 32zM160 0c6.3 0 12 3.708 14.6 9.467l24.8 55.423 56.7-21.66c5.9-2.25 12.6-.83 17 3.63 4.5 4.46 5.9 11.13 3.7 17.02l-21.7 56.72 55.4 24.8c5.8 1.7 9.5 8.3 9.5 14.6 0 6.3-3.7 12-9.5 14.6l-55.4 24.8 21.7 56.7c2.2 5.9.8 12.6-3.7 17-4.4 4.5-11.1 5.9-17 3.7l-56.7-21.7-24.8 55.4c-2.6 5.8-8.3 9.5-14.6 9.5-6.3 0-12.9-3.7-14.6-9.5l-24.8-55.4-56.72 21.7c-5.89 2.2-12.56.8-17.02-3.7-4.46-4.4-5.88-11.1-3.63-17l21.66-56.7-55.423-24.8C3.708 172 0 166.3 0 160c0-6.3 3.708-12.9 9.467-14.6l55.423-24.8-21.66-56.72a16.001 16.001 0 0 1 3.63-17.02 16.001 16.001 0 0 1 17.02-3.63l56.72 21.66 24.8-55.423C147.1 3.708 153.7 0 160 0zm0 224c35.3 0 64-28.7 64-64s-28.7-64-64-64-64 28.7-64 64 28.7 64 64 64zm344 224h104c17.7 0 32 14.3 32 32s-14.3 32-32 32H32c-17.67 0-32-14.3-32-32s14.33-32 32-32h424V272c0-17.7-14.3-32-32-32s-32 14.3-32 32v21.4c14.8 7.7 24 23.1 24 44.6 0 19.3-21.5 52.1-48 78-26.5-25.9-48-58.4-48-78 0-21.5 9.2-36.9 24-44.6v-22.3c0-43.3 35.8-80 80-80 11.4 0 22.2 3.3 32 7.6v-23.6c0-43.3 35.8-80 80-80s80 36.7 80 80v54.3c14.8 7.7 24 23.1 24 44.6 0 19.3-21.5 52.1-48 78-26.5-25.9-48-58.4-48-78 0-21.5 9.2-36.9 24-44.6v-54.3c0-16.8-14.3-32-32-32s-32 15.2-32 32V448z"/></svg>

<svg xmlns="http://www.w3.org/2000/svg" viewBox="0 0 640 512" height="1em" width="1em">
<!--! Font Awesome Free 6.1.2 by @fontawesome - https://fontawesome.com License - https://fontawesome.com/license/free (Icons: CC BY 4.0, Fonts: SIL OFL 1.1, Code: MIT License) Copyright 2022 Fonticons, Inc.-->
  <path d="M192 160C192 177.7 177.7 192 160 192C142.3 192 128 177.7 128 160C128 142.3 142.3 128 160 128C177.7 128 192 142.3 192 160zM160 0C166.3 0 172 3.708 174.6 9.467L199.4 64.89L256.1 43.23C262 40.98 268.7 42.4 273.1 46.86C277.6 51.32 279 57.99 276.8 63.88L255.1 120.6L310.5 145.4C316.3 147.1 320 153.7 320 160C320 166.3 316.3 172 310.5 174.6L255.1 199.4L276.8 256.1C279 262 277.6 268.7 273.1 273.1C268.7 277.6 262 279 256.1 276.8L199.4 255.1L174.6 310.5C172 316.3 166.3 320 160 320C153.7 320 147.1 316.3 145.4 310.5L120.6 255.1L63.88 276.8C57.99 279 51.32 277.6 46.86 273.1C42.4 268.7 40.98 262 43.23 256.1L64.89 199.4L9.467 174.6C3.708 172 0 166.3 0 160C0 153.7 3.708 147.1 9.467 145.4L64.89 120.6L43.23 63.88C40.98 57.99 42.4 51.32 46.86 46.86C51.32 42.4 57.99 40.98 63.88 43.23L120.6 64.89L145.4 9.467C147.1 3.708 153.7 0 160 0V0zM160 224C195.3 224 224 195.3 224 160C224 124.7 195.3 96 160 96C124.7 96 96 124.7 96 160C96 195.3 124.7 224 160 224zM504 448H608C625.7 448 640 462.3 640 480C640 497.7 625.7 512 608 512H32C14.33 512 .0003 497.7 .0003 480C.0003 462.3 14.33 448 32 448H456V272C456 254.3 441.7 240 424 240C406.3 240 392 254.3 392 272V293.4C406.8 301.1 416 316.5 416 338C416 357.3 394.5 390.1 368 416C341.5 390.1 320 357.6 320 338C320 316.5 329.2 301.1 344 293.4V271.1C344 227.8 379.8 191.1 424 191.1C435.4 191.1 446.2 194.4 456 198.7V175.1C456 131.8 491.8 95.1 536 95.1C580.2 95.1 616 131.8 616 175.1V229.4C630.8 237.1 640 252.5 640 274C640 293.3 618.5 326.1 592 352C565.5 326.1 544 293.6 544 274C544 252.5 553.2 237.1 568 229.4V175.1C568 158.3 553.7 143.1 536 143.1C518.3 143.1 504 158.3 504 175.1V448z"/>
</svg>
